web/packages/design/src/ResourceIcon/assets/dmarcian.svg

<svg width="72" height="72" viewBox="0 0 72 72" fill="none" xmlns="http://www.w3.org/2000/svg">
<path d="M49.4538 5.61142L49.9594 28.883C48.3959 27.7566 46.1661 26.831 43.5935 26.831H25.3992C15.483 27.0751 14.2344 35.7648 14.2344 36.8619V46.5758C14.2344 51.7867 18.1053 54.7753 21.1844 56.129C22.4866 56.7014 23.9834 56.6051 24.5286 56.6051H45.7268C54.8165 55.0413 58.3618 49.2431 58.3618 44.6921V5.61084L49.4538 5.61142ZM27.6899 32.9099H43.6895C45.9144 32.9099 49.8035 34.6197 49.9545 39.9702V44.4109C49.9545 49.2753 45.0148 50.4572 44.3163 50.5661C43.8853 50.6381 27.8224 50.6753 27.8224 50.6753C23.3607 50.5052 22.8448 46.6908 22.8448 45.937V37.8C23.0291 33.6429 26.6303 32.8742 27.6899 32.9099Z" fill="#39B34A"/>
<path d="M47.7059 17.279C43.3916 16.4247 39.4032 16.1752 36.6762 16.2222C16.2171 16.1239 0.134975 26.1161 0.442823 41.6833C0.686586 54.0197 8.494 65.2992 30.6281 66.3498C36.2653 66.6175 41.5427 65.5067 46.6579 63.9882L45.0853 58.7592C40.6496 60.2554 37.6395 60.9194 31.9025 60.7658C8.84859 60.1486 7.75976 46.7249 7.40035 42.2939C7.38978 42.1637 7.37985 42.0412 7.37 41.927C7.40131 24.4642 26.3369 22.8492 33.164 22.7874C39.0445 22.7602 43.8893 23.3333 47.859 24.3274L47.7059 17.279Z" fill="white" fill-opacity="0.18"/>
<path d="M48.2704 58.0957C49.6043 58.6326 51.4474 59.0984 54.2004 59.4384C57.6959 59.87 70.6142 57.2527 71.5155 41.8053C72.099 31.8016 67.0126 25.5749 60.3608 21.7727V31.0389C63.5088 34.4599 64.4959 38.3975 64.3328 41.7222C63.9702 49.119 60.5146 50.6056 59.241 50.9137C59.0437 50.9616 58.8139 50.9619 58.5672 50.933C56.7006 54.0269 53.3343 56.7447 48.2704 58.0957Z" fill="white" fill-opacity="0.18"/>
</svg>

<svg xmlns="http://www.w3.org/2000/svg" width="72" height="72" fill="none" viewBox="0 0 72 72"><path fill="#39b34a" d="m49.454 5.611.505 23.272a11 11 0 0 0-6.366-2.052H25.4c-9.916.244-11.165 8.934-11.165 10.03v9.715c0 5.21 3.871 8.2 6.95 9.553 1.303.572 2.8.476 3.345.476h21.198c9.09-1.564 12.635-7.362 12.635-11.913V5.611zM27.69 32.91h16c2.224 0 6.114 1.71 6.265 7.06v4.44c0 4.865-4.94 6.047-5.639 6.156-.43.072-16.494.11-16.494.11-4.461-.17-4.977-3.985-4.977-4.739V37.8c.184-4.157 3.785-4.926 4.845-4.89"/><path fill="#fff" fill-opacity=".18" d="M47.706 17.279c-4.314-.854-8.303-1.104-11.03-1.057C16.217 16.124.135 26.116.443 41.683.687 54.02 8.494 65.3 30.628 66.35c5.637.268 10.915-.843 16.03-2.362l-1.573-5.229c-4.435 1.496-7.446 2.16-13.183 2.007C8.85 60.149 7.76 46.725 7.4 42.294l-.03-.367c.031-17.463 18.967-19.078 25.794-19.14 5.88-.027 10.725.546 14.695 1.54zm.564 40.817c1.334.537 3.177 1.002 5.93 1.342 3.496.432 16.414-2.185 17.316-17.633.583-10.003-4.503-16.23-11.155-20.032v9.266c3.148 3.42 4.135 7.358 3.972 10.683-.363 7.397-3.818 8.884-5.092 9.192a2 2 0 0 1-.674.019c-1.866 3.094-5.233 5.812-10.297 7.163"/></svg>
